X:402
T: IM BOEHMERLAND BEI PRAG
N: E0329
O: Europa, Mitteleuropa, Deutschland, Neumark, Lippehne
R: historisches Lied, Siebenjaehriger Krieg (1757)
M: 2/4
L: 1/16
K: Bb
F2 | B3cdcdc | B4z2
Bc | d2d2d2cd | e2dBc2
AB | ccccccBc | d4z2
Bc | d2ddd2e2 | f2edc2
cd | e2ddc2AB | c2AGF2
Bd | f3Bd2cA | B4z2

